!!!COM: Gaspar van Weerbeke
!!!CDT: ~1450-~1517
!!!OTL: Lamentationes Ieremiae prophetae
!!!AGN: Motet; Lamentation
!!!SCT: Gas0501a
!!!SCA: Gas0501a
!!!voices: 4
**kern	**text	**kern	**text	**kern	**text	**kern	**text
*part4	*part4	*part3	*part3	*part2	*part2	*part1	*part1
*staff4	*staff4	*staff3	*staff3	*staff2	*staff2	*staff1	*staff1
*I"Bassus	*	*I"Tenor	*	*I"Altus	*	*I"Superius	*
*I'B	*	*I'T	*	*I'A	*	*I'S	*
*clefF4	*	*clefGv2	*	*clefGv2	*	*clefG2	*
*k[]	*	*k[]	*	*k[]	*	*k[]	*
*C:	*	*C:	*	*C:	*	*C:	*
*M2/2	*	*M2/2	*	*M2/2	*	*M2/2	*
*met(C|)	*	*met(C|)	*	*met(C|)	*	*met(C|)	*
=1	=1	=1	=1	=1	=1	=1	=1
*	*	*	*	*	*	*	*
!!LO:TX:a:t=[In coena Domini. Primo nocturno]\n[Lectio prima]
1F	In-	1F	In-	1c	In-	[1f	In-
=2	=2	=2	=2	=2	=2	=2	=2
1D	.	1A	.	1d	.	1f]	.
=3	=3	=3	=3	=3	=3	=3	=3
[1C	.	[1c	.	[1e	.	[1g	.
=4	=4	=4	=4	=4	=4	=4	=4
1C]	.	1c]	.	1e]	.	1g]	.
=5	=5	=5	=5	=5	=5	=5	=5
[1F	.	[1c	.	[1f	.	[1a	.
=6	=6	=6	=6	=6	=6	=6	=6
2F]	.	2c]	.	2f]	.	2a]	.
2F	-ci-	2c	-ci-	2f	-ci-	2a	ci-
=7	=7	=7	=7	=7	=7	=7	=7
1F	-pit	1c	-pit	1f	-pit	1a	-pit
=8	=8	=8	=8	=8	=8	=8	=8
1r	.	1r	.	1r	.	1r	.
=9	=9	=9	=9	=9	=9	=9	=9
2A	la-	2c	la-	2e	la-	2a	la-
2A	-men-	2c	-men-	2e	-men-	2a	-men-
!!LO:LB:g=original
=10	=10	=10	=10	=10	=10	=10	=10
[1A	-ta-	[1c	-ta-	[1e	-ta-	[1a	-ta-
=11	=11	=11	=11	=11	=11	=11	=11
2A]	.	2c]	.	2e]	.	2a]	.
2D	-ti-	2d	-ti-	2f	-ti-	2a	-ti-
=12	=12	=12	=12	=12	=12	=12	=12
1D	-o	1d	-o	1f	-o	1a	-o
=13	=13	=13	=13	=13	=13	=13	=13
2E	Ie-	2B	Ie-	2e	Ie-	2g	Ie-
2F	-re-	2A	-re-	2c	-re-	2a	-re-
=14	=14	=14	=14	=14	=14	=14	=14
1BB-X	-mi-	1d	-mi-	1f	-mi-	1b-i	-mi-
=15	=15	=15	=15	=15	=15	=15	=15
1F	-e	1c	-e	1f	-e	1a	-e
=16	=16	=16	=16	=16	=16	=16	=16
2G	pro-	2B	pro-	2d	pro-	2g	pro-
[2F	.	[2c	.	2f	.	[2a	.
=17	=17	=17	=17	=17	=17	=17	=17
2F]	.	2c]	.	2f	-phe-	2a]	.
2C	-phe-	2c	-phe-	4e	.	2g	.
.	.	.	.	4c	.	.	.
!!LO:LB:g=original
=18	=18	=18	=18	=18	=18	=18	=18
1D	.	2A	.	4ryy	.	1f	-phe-
.	.	.	.	8BL	.	.	.
.	.	.	.	8AJ	.	.	.
.	.	2F	.	4A	.	.	.
.	.	.	.	4B	.	.	.
=19	=19	=19	=19	=19	=19	=19	=19
1C	.	1G	.	[1c	.	1e	.
=20	=20	=20	=20	=20	=20	=20	=20
1Fl	.	1Fl	.	1cl]	.	1fl	.
=21||	=21||	=21||	=21||	=21||	=21||	=21||	=21||
1r	.	1F	-A-	1f	-A-	1a	-A-
=22	=22	=22	=22	=22	=22	=22	=22
1r	.	2.G	.	[1d	.	2.b-i	.
.	.	4A	.	.	.	4a	.
=23	=23	=23	=23	=23	=23	=23	=23
1r	.	2B-i	.	1d]	.	2g	.
.	.	2d	.	.	.	2f	.
=24	=24	=24	=24	=24	=24	=24	=24
1r	.	1c	.	1e	.	1g	.
=25	=25	=25	=25	=25	=25	=25	=25
1r	.	1Fl	-leph.	1fl	-leph.	1fl	-leph.
!!LO:PB:g=original
=26||	=26||	=26||	=26||	=26||	=26||	=26||	=26||
1D	-Quo-	1A	Quo-	1d	Quo-	1f	Quo-
=27	=27	=27	=27	=27	=27	=27	=27
1C	-mo-	1c	-mo-	1e	-mo-	1g	-mo-
=28	=28	=28	=28	=28	=28	=28	=28
1F	-do	1c	-do	1f	-do	1a	-do
=29	=29	=29	=29	=29	=29	=29	=29
2F	se-	2c	se-	2f	se-	2a	se-
2F	-det	2c	-det	2f	-det	2a	-det
=30	=30	=30	=30	=30	=30	=30	=30
1F	so-	1c	so-	1f	so-	1a	so-
=31	=31	=31	=31	=31	=31	=31	=31
2D	-la	2d	-la	2f	-la	2a	-la
[2D	ci-	[2d	ci-	[2f	ci-	[2a	ci-
=32	=32	=32	=32	=32	=32	=32	=32
2D]	.	2d]	.	2f]	.	2a]	.
2D	-vi-	2d	-vi-	2f	-vi-	2a	-vi-
=33	=33	=33	=33	=33	=33	=33	=33
1E	-tas	1B	-tas	1e	-tas	1g	-tas
=34	=34	=34	=34	=34	=34	=34	=34
1G	ple-	2r	.	1d	ple-	1b-i	ple-
.	.	[2d	ple-	.	.	.	.
!!LO:LB:g=original
=35	=35	=35	=35	=35	=35	=35	=35
1D	-na	2d]	.	1f	-na	1a	-na
.	.	2d	-na	.	.	.	.
=36	=36	=36	=36	=36	=36	=36	=36
2E	po-	2B	po-	2e	po-	2g	po-
2C	-pu-	2c	-pu-	2e	-pu-	2g	-pu-
=37	=37	=37	=37	=37	=37	=37	=37
1E	-lo.	1B	-lo.	1e	-lo.	1g	-lo.
=38	=38	=38	=38	=38	=38	=38	=38
0AAl	.	0Al	.	0el	.	0al	.
=39||	=39||	=39||	=39||	=39||	=39||	=39||	=39||
1A	Fa-	1c	Fa-	1c	Fa-	1f	Fa-
=40	=40	=40	=40	=40	=40	=40	=40
1G	-cta	1B-j	-cta	1d	-cta	1g	-cta
=41	=41	=41	=41	=41	=41	=41	=41
1F	est	1c	est	1f	est	1a	est
=42	=42	=42	=42	=42	=42	=42	=42
2A	qua-	2c	qua-	2c	qua-	2f	qua-
2A	-si	2c	-si	2c	-si	2e	-si
=43	=43	=43	=43	=43	=43	=43	=43
2.A	vi-	2.c	vi-	2.e	vi-	2.a	vi-
4A	-du-	4c	-du-	4e	-du-	4a	-du-
!!LO:LB:g=original
=44	=44	=44	=44	=44	=44	=44	=44
2A	-a	2c	-a	2e	-a	2a	-a
2r	.	2r	.	2r	.	2r	.
=45	=45	=45	=45	=45	=45	=45	=45
2.G	do-	2.G	do-	2r	.	2.b-i	do-
.	.	.	.	2d	do-	.	.
4F	-mi-	4A	-mi-	.	.	4a	-mi-
=46	=46	=46	=46	=46	=46	=46	=46
2E	-na	2B	-na	4e	-mi-	2g	-na
.	.	.	.	2e	-na	.	.
2r	.	[2c	gen-	.	.	[2a	gen-
.	.	.	.	[4e	gen-	.	.
=47	=47	=47	=47	=47	=47	=47	=47
1r	.	4c]	.	4e]	.	4a]	.
.	.	4A	-ti-	2f	-ti-	4a	-ti-
.	.	2G	.	.	.	2b-i	.
.	.	.	.	4e	.	.	.
=48	=48	=48	=48	=48	=48	=48	=48
1r	.	1F	-um,	1f	-um,	1a	-um,
=49	=49	=49	=49	=49	=49	=49	=49
1r	.	1r	.	1r	.	1r	.
=50	=50	=50	=50	=50	=50	=50	=50
1D	prin-	1F	prin-	1A	prin-	1f	prin-
=51	=51	=51	=51	=51	=51	=51	=51
1C	-ceps	1G	-ceps	1c	-ceps	1e	-ceps
!!LO:LB:g=original
=52	=52	=52	=52	=52	=52	=52	=52
2BB-X	pro-	2B-X	pro-	2d	pro-	2f	pro-
[2BB-	-vin-	[2B-	-vin-	[2d	-vin-	[2f	-vin-
=53	=53	=53	=53	=53	=53	=53	=53
2BB-]	.	2B-]	.	2d]	.	2f]	.
2D	-ci-	2A	-ci-	2d	-ci-	2f	-ci-
=54	=54	=54	=54	=54	=54	=54	=54
1G	-a-	1B-i	-a-	1d	-a-	1g	-a-
=55	=55	=55	=55	=55	=55	=55	=55
1D	-rum	1A	-rum	1d	-rum	1a	-rum
=56	=56	=56	=56	=56	=56	=56	=56
1r	.	1r	.	1r	.	1r	.
=57	=57	=57	=57	=57	=57	=57	=57
2.G	fa-	2.B-i	fa-	1r	.	2.d	fa-
4G	-cta	4B-i	-cta	.	.	4e	-cta
=58	=58	=58	=58	=58	=58	=58	=58
1D	est	1A	est	2.d	fa-	1f	est
.	.	.	.	4d	-cta	.	.
=59	=59	=59	=59	=59	=59	=59	=59
2G	sub	2B-i	sub	2d	est	2g	sub
2F	tri-	[2c	tri-	[2f	sub	[2a	tri-
!!LO:LB:g=original
=60	=60	=60	=60	=60	=60	=60	=60
2F	-bu-	2c]	.	4f]	.	2a]	.
.	.	.	.	4e	.	.	.
2E	.	2G	.	2c	tri-	[2g	-bu-
=61	=61	=61	=61	=61	=61	=61	=61
1D	-to,	1A	-bu-	1d	-bu-	2g]	.
.	.	.	.	.	.	2f#	.
=62	=62	=62	=62	=62	=62	=62	=62
2r	.	1G	-to,	1d	-to,	1g	-to,
2G	<i>sub</i>	.	.	.	.	.	.
=63	=63	=63	=63	=63	=63	=63	=63
*	*	*	*	*	*ij	*	*ij
2F	.	1c	<i>sub</i>	1f	sub	2.a	sub
2A	.	.	.	.	.	.	.
.	.	.	.	.	.	4cc	.
=64	=64	=64	=64	=64	=64	=64	=64
1G	.	2.d	<i>tri</i>-	2.g	tri-	2.b-i	tri-
.	.	4c	.	8fL	.	4a	.
.	.	.	.	8eJ	.	.	.
=65	=65	=65	=65	=65	=65	=65	=65
2r	.	2B-X	-<i>bu</i>-	2d	bu-	2g	bu-
2F	<i>tri</i>-	2A	.	2c	.	[2a	.
=66	=66	=66	=66	=66	=66	=66	=66
1D	-<i>bu</i>-	1F	.	4.d	.	2a]	.
.	.	.	.	8c	.	.	.
.	.	.	.	4.A	.	[2f	.
.	.	.	.	8B	.	.	.
=67	=67	=67	=67	=67	=67	=67	=67
1C	.	1G	.	1c	.	2f]	.
.	.	.	.	.	.	2e	.
=68	=68	=68	=68	=68	=68	=68	=68
1F	.	1F	.	1ryy	to.	1fl	to.
!!LO:LB:g=original
=69||	=69||	=69||	=69||	=69||	=69||	=69||	=69||
*	*	*	*	*	*	*	*Xij
1BB-	-Beth.	[1d	.	1r	.	1b-	-Beth.
=70	=70	=70	=70	=70	=70	=70	=70
1D	.	1A]	.	1r	.	1a	.
=71	=71	=71	=71	=71	=71	=71	=71
1E-	.	2.B-	.	1r	.	1g	.
.	.	8AL	.	.	.	.	.
.	.	8GJ	.	.	.	.	.
=72	=72	=72	=72	=72	=72	=72	=72
1D	.	1F	.	1r	.	2.a	.
.	.	.	.	.	.	8gL	.
.	.	.	.	.	.	8fJ	.
=73	=73	=73	=73	=73	=73	=73	=73
1C	.	1G	.	1r	.	1e	.
=74	=74	=74	=74	=74	=74	=74	=74
1F	.	1F	.	1r	.	1f	.
=75||	=75||	=75||	=75||	=75||	=75||	=75||	=75||
1r	.	1F	-Plo-	1r	.	1f	Plo-
=76	=76	=76	=76	=76	=76	=76	=76
1r	.	1G	-rans	1g	-Plo-	1d	-rans
!!LO:PB:g=original
=77	=77	=77	=77	=77	=77	=77	=77
1r	.	1A	plo-	2e	-rans	1c	plo-
.	.	.	.	2e	plo-	.	.
=78	=78	=78	=78	=78	=78	=78	=78
1r	.	1B-	-ra-	1d	-ra-	1f	-ra-
=79	=79	=79	=79	=79	=79	=79	=79
1r	.	2c	-vit	2c	-vit	2e	-vit
.	.	2A	in	2c	in	2f	in
=80	=80	=80	=80	=80	=80	=80	=80
1r	.	1B-	no-	1d	no-	1g	no-
=81	=81	=81	=81	=81	=81	=81	=81
1r	.	1A	-cte,	1e	-cte,	1a	-cte,
=82	=82	=82	=82	=82	=82	=82	=82
2r	.	2r	.	2r	.	2r	.
2A	Et	2c	et	2e	et	2a	et
=83	=83	=83	=83	=83	=83	=83	=83
2.B-	la-	2.d	la-	2.d	la-	2.g	la-
4A	-cri-	4c	-cri-	4e	-cri-	4a	-cri-
=84	=84	=84	=84	=84	=84	=84	=84
1G	-me	2d	-me	2g	-me	1b-	-me
.	.	2B-	.	2e	.	.	.
!!LO:LB:g=original
=85	=85	=85	=85	=85	=85	=85	=85
2F	e-	2c	e-	2f	e-	2a	e-
2F	-ius	2c	-ius	2f	-ius	2a	-ius
=86	=86	=86	=86	=86	=86	=86	=86
2r	.	2r	.	2r	.	2r	.
2A	in	2c	in	2f	in	2a	in
=87	=87	=87	=87	=87	=87	=87	=87
2G	ma-	2d	ma-	2d	ma-	2b-	ma-
2F	-xil-	2A	-xil-	[2f	-xil-	2cc	-xil-
=88	=88	=88	=88	=88	=88	=88	=88
2ryy	.	2ryy	.	2f]	.	2ryy	.
2G	.	2G	.	2d	.	2b-	.
=89	=89	=89	=89	=89	=89	=89	=89
2F	-lis	2c	-lis	1f	-lis	2a	-lis
2D	.	2d	.	.	.	2a	e-
=90	=90	=90	=90	=90	=90	=90	=90
1E	e-	1B	e-	1e	e-	2ryy	.
.	.	.	.	.	.	2g#	.
=91	=91	=91	=91	=91	=91	=91	=91
1AA	.	1A	.	1e	.	1a	.
!!LO:LB:g=original
=92||	=92||	=92||	=92||	=92||	=92||	=92||	=92||
1A	-Non	1r	.	1c	-Non	1f	-Non
=93	=93	=93	=93	=93	=93	=93	=93
1B-	est	1r	.	1d	est	1g	est
=94	=94	=94	=94	=94	=94	=94	=94
1A	qui	1c	-Non	1e	qui	1a	qui
=95	=95	=95	=95	=95	=95	=95	=95
2D	con-	2d	est	2f	con-	2a	con-
2D	-so-	2d	qui	2f	-so-	2a	-so-
=96	=96	=96	=96	=96	=96	=96	=96
1F	-le-	2c	con-	1f	-le-	1a	-le-
.	.	2c	-so-	.	.	.	.
=97	=97	=97	=97	=97	=97	=97	=97
2ryy	.	2d	-le-	2f	-tur	2ryy	.
2G	-tur	2d	-tur	2d	.	2b-	-tur
=98	=98	=98	=98	=98	=98	=98	=98
1G	e-	1d	e-	1g	e-	1b-	e-
=99	=99	=99	=99	=99	=99	=99	=99
1D	-am	1d	-am	1f	-am	1a	-am
!!LO:PB:g=original
=100	=100	=100	=100	=100	=100	=100	=100
1r	.	2r	.	2r	.	2r	.
.	.	2G	ex	2d	ex	2g	ex
=101	=101	=101	=101	=101	=101	=101	=101
1r	.	2.A	o-	2.c	o-	2.f	o-
.	.	4A	-mni-	4c	-mni-	4f	-mni-
=102	=102	=102	=102	=102	=102	=102	=102
2r	.	2G	-bus	2d	-bus	1g	-bus
2C	ca-	2G	ca-	2e	.	.	.
=103	=103	=103	=103	=103	=103	=103	=103
2D	-ris	2D	-ris	4r	.	2f	ca-
.	.	.	.	4A	ca-	.	.
2C	e-	2G	e-	2c	.	2e	-ris
=104	=104	=104	=104	=104	=104	=104	=104
1D	.	4ryy	.	4ryy	.	1f	e-
.	.	8FL	.	8BL	-ris	.	.
.	.	8EJ	.	8AJ	.	.	.
.	.	2F	.	2B	e-	.	.
=105	=105	=105	=105	=105	=105	=105	=105
1C	-ius,	1G	-ius,	1c	-ius,	1e	-ius,
=106	=106	=106	=106	=106	=106	=106	=106
1r	.	1r	.	1r	.	1r	.
=107	=107	=107	=107	=107	=107	=107	=107
1D	o-	1F	o-	1A	o-	1r	.
!!LO:LB:g=original
=108	=108	=108	=108	=108	=108	=108	=108
1D	-mnes	1A	-mnes	1d	-mnes	1r	.
=109	=109	=109	=109	=109	=109	=109	=109
2D	a-	2A	a-	2d	a-	1r	.
2G	-mi-	2B	-mi-	2d	-mi-	.	.
=110	=110	=110	=110	=110	=110	=110	=110
2ryy	.	2ryy	.	2ryy	.	1r	.
2A	-ci	2A	-ci	2d	-ci	.	.
=111	=111	=111	=111	=111	=111	=111	=111
1B-	e-	1G	e-	1d	e-	1r	.
=112	=112	=112	=112	=112	=112	=112	=112
1A	-ius	1A	-ius	1c	-ius	1r	.
=113	=113	=113	=113	=113	=113	=113	=113
2r	.	2r	.	2r	.	2r	.
2A	spre-	2c	spre-	2f	spre-	2a	spre-
=114	=114	=114	=114	=114	=114	=114	=114
1G	-ve-	1d	-ve-	1g	-ve-	1b-	-ve-
=115	=115	=115	=115	=115	=115	=115	=115
2ryy	.	2ryy	.	2ryy	.	2ryy	.
2A	-runt	2c	-runt	2e	-runt	2a	-runt
!!LO:LB:g=original
=116	=116	=116	=116	=116	=116	=116	=116
1E	e-	1B	e-	1e	e-	1g	e-
=117	=117	=117	=117	=117	=117	=117	=117
1F	-am	1A	-am	1c	-am	1a	-am
=118	=118	=118	=118	=118	=118	=118	=118
1r	.	1A	et	1c	et	1e	et
=119	=119	=119	=119	=119	=119	=119	=119
1D	et	1A	fa-	1d	fa-	1f	fa-
=120	=120	=120	=120	=120	=120	=120	=120
2G	fa-	2B	-cti	2ryy	.	2g	-cti
2C	-cti	2c	sunt	2e	-cti	2g	sunt
=121	=121	=121	=121	=121	=121	=121	=121
2ryy	.	2ryy	.	2ryy	.	2ryy	.
2E	sunt	2c	e-	2g	sunt	2g	e-
=122	=122	=122	=122	=122	=122	=122	=122
2F	e-	2c	-i	2f	e-	2a	-i
2F	-i	2c	i-	2f	-i	2a	i-
=123	=123	=123	=123	=123	=123	=123	=123
2F	i-	2c	-ni-	2f	i-	2a	-ni-
2G	.	2G	.	2d	.	2g	-mi-
!!LO:PB:g=original
=124	=124	=124	=124	=124	=124	=124	=124
1D	-ni-	1A	-mi-	1d	-ni-	4ryy	.
.	.	.	.	.	.	8f#L	.
.	.	.	.	.	.	8eJ	.
.	.	.	.	.	.	2f#	.
=125	=125	=125	=125	=125	=125	=125	=125
1E	-mi-	1G	-ci,	1B	-mi-	1g	-ci,
=126	=126	=126	=126	=126	=126	=126	=126
1C	.	2r	.	1e	.	2.cc	<i>i</i>-
.	.	2G	<i>i</i>-	.	.	.	.
.	.	.	.	.	.	8b-L	.
.	.	.	.	.	.	8aJ	.
=127	=127	=127	=127	=127	=127	=127	=127
1ryy	.	2.c	-<i>ni</i>-	2.e	.	1g	-<i>ni</i>-
.	.	8B-L	.	4f	.	.	.
.	.	8AJ	.	.	.	.	.
=128	=128	=128	=128	=128	=128	=128	=128
1r	.	1G	-<i>mi</i>-	2.g	.	2.b-	-<i>mi</i>-
.	.	.	.	8fL	.	4a	.
.	.	.	.	8eJ	.	.	.
=129	=129	=129	=129	=129	=129	=129	=129
2r	.	2B-	.	2d	.	2g	.
2F	-<i>i</i>-	2A	.	2c	-ci.-	2f	.
=130	=130	=130	=130	=130	=130	=130	=130
2C	-<i>ni</i>-	1G	.	1ryy	.	1e	.
2C	-<i>mi</i>-	.	.	.	.	.	.
=131	=131	=131	=131	=131	=131	=131	=131
1F	.	1F	.	1ryy	.	1f	.
!!LO:LB:g=original
=132||	=132||	=132||	=132||	=132||	=132||	=132||	=132||
1D	-Ie-	1A	-Ie-	1d	-Ie-	1f	-Ie-
=133	=133	=133	=133	=133	=133	=133	=133
1G	.	1B-	.	2.d	.	1g	.
.	.	.	.	4B-	.	.	.
=134	=134	=134	=134	=134	=134	=134	=134
1F	.	1A	.	2.c	.	1a	.
.	.	.	.	4f	.	.	.
=135	=135	=135	=135	=135	=135	=135	=135
1G	.	2r	.	2.d	.	1b-	.
.	.	2G	.	.	.	.	.
.	.	.	.	4e	.	.	.
=136	=136	=136	=136	=136	=136	=136	=136
2F	-ru-	2c	-ru-	2f	-ru-	2a	-ru-
2F	-sa-	2c	-sa-	2f	-sa-	2a	-sa-
=137	=137	=137	=137	=137	=137	=137	=137
1D	-lem,	1d	-lem,	1f	-lem,	1a	-lem,
=138	=138	=138	=138	=138	=138	=138	=138
1r	.	1r	.	1r	.	1r	.
=139	=139	=139	=139	=139	=139	=139	=139
1F	Ie-	1c	Ie-	1f	Ie-	1a	Ie-
!!LO:LB:g=original
=140	=140	=140	=140	=140	=140	=140	=140
2E	-ru-	2c	-ru-	2g	-ru-	2g	-ru-
2F	.	2c	.	2f	.	2a	.
=141	=141	=141	=141	=141	=141	=141	=141
1F	-sa-	1A	-sa-	1f	-sa-	2.cc	-sa-
.	.	.	.	.	.	8b-L	.
.	.	.	.	.	.	8aJ	.
=142	=142	=142	=142	=142	=142	=142	=142
2E	.	2c	.	2g	.	2g	.
2D	.	2d	.	2f	.	2a	.
=143	=143	=143	=143	=143	=143	=143	=143
1E	.	1B	.	1e	.	2ryy	.
.	.	.	.	.	.	2g#	.
=144	=144	=144	=144	=144	=144	=144	=144
1AA	-lem,	1A	-lem,	1e	-lem,	1a	-lem,
=145	=145	=145	=145	=145	=145	=145	=145
1r	.	1r	.	1r	.	1r	.
=146	=146	=146	=146	=146	=146	=146	=146
2D	con-	2A	con-	2d	con-	2f	con-
2E	-ver-	2G	-ver-	2B	-ver-	2g	-ver-
=147	=147	=147	=147	=147	=147	=147	=147
4ryy	.	4ryy	.	4ryy	.	4ryy	.
4E	-te-	4G	-te-	4G	-te-	4g	-te-
2C	-re	2c	-re	2G	-re	2g	-re
!!LO:PB:g=original
=148	=148	=148	=148	=148	=148	=148	=148
1r	.	2r	.	2r	.	2r	.
.	.	2c	ad	2e	ad	2a	ad
=149	=149	=149	=149	=149	=149	=149	=149
1r	.	2.d	Do-	2.f	Do-	2.b-	Do-
.	.	4c	-mi-	4e	-mi-	4a	-mi-
=150	=150	=150	=150	=150	=150	=150	=150
2C	ad	2c	-num	2e	-num	2g	-num
2F	Do-	2c	De-	2A	.	2f	De-
=151	=151	=151	=151	=151	=151	=151	=151
2C	-mi-	2c	-um	2r	.	2e	.
2D	-num	2A	.	2d	De-	2f	.
=152	=152	=152	=152	=152	=152	=152	=152
2E	De-	2G	.	2.B	-um	2g	-um
2G	.	2B	.	.	.	2g	tu-
.	.	.	.	4G	.	.	.
=153	=153	=153	=153	=153	=153	=153	=153
1D	-um	1A	tu-	1d	<i>tu</i>-	2ryy	.
.	.	.	.	.	.	2f#	.
=154	=154	=154	=154	=154	=154	=154	=154
2r	.	1G	-<i>um,</i>	1B	-<i>um,</i>	1g	-um,
2G	tu-	.	.	.	.	.	.
!!LO:LB:g=original
=155	=155	=155	=155	=155	=155	=155	=155
1A	.	1c	<i>tu</i>-	1e	tu-	1r	.
=156	=156	=156	=156	=156	=156	=156	=156
1D	-um,	1d	.	1f	.	1a	<i>tu</i>-
=157	=157	=157	=157	=157	=157	=157	=157
1r	.	1G	.	1g	.	2.b-	.
.	.	.	.	.	.	8aL	.
.	.	.	.	.	.	8gJ	.
=158	=158	=158	=158	=158	=158	=158	=158
2D	<i>tu</i>-	1A	.	2d	.	2f	.
2C	.	.	.	2e	.	2e	.
=159	=159	=159	=159	=159	=159	=159	=159
1D	.	1F	.	2.A	.	2f	.
.	.	.	.	.	.	2f	.
.	.	.	.	4B	.	.	.
=160	=160	=160	=160	=160	=160	=160	=160
1C	.	1G	.	1c	.	2ryy	.
.	.	.	.	.	.	2e	.
=161	=161	=161	=161	=161	=161	=161	=161
1F	.	1F	.	1ryy	.	1f	.
==	==	==	==	==	==	==	==
*-	*-	*-	*-	*-	*-	*-	*-
!!!system-decoration: [(s1,s2,s3,s4)]
!!!YEM: ©2018 American Institute of Musicology
!!!RDF**kern: i = editorial accidental
!!!RDF**kern: j = editorial accidental, paren up
!!!RDF**kern: l = terminal long
